X:1
T:John Cherokee
M:4/4
L:1/4
K:Bb
 B| d B/2B/2 cA/2-A/2| B G/2G/2 F2| B3/2 B/2 F F| G A/2A/2 B3/2| d/2|\
 f d e c| d/2d/2 B F2| B3/2 B/2 F F| G A/2A/2 B| d/2d/2| f d e c/2c/2|\
 d B c2| B3/2 B/2 F F| G A/2A/2 B||
